icons/iOSBellSlash.svg

<svg width="24" height="24" viewBox="0 0 24 24" fill="none" xmlns="http://www.w3.org/2000/svg">
<path d="M12.3096 3.34668C11.0088 3.34668 10.0508 4.24316 9.69043 5.40332C9.24219 5.56152 8.83789 5.77246 8.49512 6.04492L20.4746 18.042C20.6855 17.8486 20.791 17.5674 20.791 17.2334C20.791 16.3018 19.9473 15.502 19.1562 14.7461C18.541 14.1396 18.3916 12.874 18.2773 11.7051C18.1455 8.48828 17.1963 6.2207 14.9287 5.40332C14.5596 4.24316 13.6016 3.34668 12.3096 3.34668ZM20.0967 21.1885C20.3691 21.4697 20.8262 21.4697 21.0898 21.1885C21.3535 20.916 21.3623 20.4766 21.0898 20.2041L5.11133 4.23438C4.83887 3.96191 4.39062 3.96191 4.11816 4.23438C3.8457 4.49805 3.8457 4.96387 4.11816 5.22754L20.0967 21.1885ZM5.27832 18.4639H15.8164L6.62305 9.26172C6.45605 9.99121 6.35938 10.7998 6.33301 11.7051C6.21875 12.874 6.07812 14.1396 5.4541 14.7461C4.66309 15.502 3.81934 16.3018 3.81934 17.2334C3.81934 17.9717 4.37305 18.4639 5.27832 18.4639ZM12.3096 22.085C13.8652 22.085 14.999 20.9688 15.1133 19.6943H9.49707C9.61133 20.9688 10.7539 22.085 12.3096 22.085Z" fill="black"/>
</svg>

<svg xmlns="http://www.w3.org/2000/svg" viewBox="0 0 24 24">
  <path d="M12.31 3.347c-1.301 0-2.26.896-2.62 2.056-.448.159-.852.37-1.195.642l11.98 11.997c.21-.193.316-.475.316-.809 0-.931-.844-1.731-1.635-2.487-.615-.606-.764-1.872-.879-3.04-.132-3.218-1.08-5.485-3.348-6.303-.37-1.16-1.327-2.056-2.62-2.056zm7.787 17.842a.69.69 0 00.993 0 .703.703 0 000-.985L5.11 4.234a.706.706 0 00-.993 0 .706.706 0 000 .994l15.979 15.96zM5.278 18.463h10.538L6.623 9.262c-.167.73-.264 1.538-.29 2.443-.114 1.169-.255 2.435-.879 3.041-.79.756-1.635 1.556-1.635 2.487 0 .739.554 1.23 1.46 1.23zm7.032 3.621c1.555 0 2.689-1.116 2.803-2.39H9.497c.114 1.274 1.257 2.39 2.813 2.39z"/>
</svg>
